X: 20
T:Fradley Reel
% Nottingham Music Database
S:Mick Peat
M:4/4
L:1/4
K:C
G/2|:"C"c/2d/2e/2c/2 "F"A/2c/2F|"C"c/2d/2e/2c/2 "G"B/2d/2d|\
"C"e/2d/2c/2e/2 "D"d/2c/2d/2c/2|"G"B/2c/2d/2g/2 "C"e/2c/2c/2B/2:|
K:G
|:"D"cA/2c/2 "G"d/2B/2G/2B/2|"D"cA/2c/2 "G"B/2d/2g/2d/2|\
"D"cA/2c/2 "G"B/2d/2g/2d/2|"D"e/2c/2A/2f/2 "G"g/2d/2B/2G/2:|
"Am"c/2A/2(3A/2A/2A/2 A/2B/2c/2d/2|"D"e/2d/2e/2f/2 "G"g/2d/2B/2G/2|\
"Am"c/2A/2(3A/2A/2A/2 A/2B/2c/2d/2|"E7"e/2B/2^G/2B/2 E/2B/2G/2e/2|
"Am"c/2A/2(3A/2A/2A/2 A/2B/2c/2d/2|"D"e/2d/2e/2f/2 "G"g/2a/2b/2g/2|\
"D"f/2e/2d/2e/2 f/2g/2a/2b/2|"D"c'/2a/2f/2d/2 "G"g2:|<end>
<start>
